packages/sources/icons/src/vitamix/settings-line.svg

<svg width="16" height="16" viewBox="0 0 16 16" fill="none" xmlns="http://www.w3.org/2000/svg">
<path fill-rule="evenodd" clip-rule="evenodd" d="M1.57473 9.78264C1.72584 10.3249 1.94491 10.846 2.22673 11.3333C2.50779 11.821 2.84939 12.2713 3.2434 12.6733C3.87409 12.2629 4.68173 12.2413 5.33351 12.6173C5.98529 12.9933 6.37088 13.7032 6.3314 14.4546C7.42591 14.7384 8.57466 14.7389 9.6694 14.456C9.62956 13.7046 10.0149 12.9944 10.6665 12.6181C11.3182 12.2418 12.1259 12.2632 12.7567 12.6733C13.5489 11.8667 14.1227 10.8717 14.4241 9.78198C13.7537 9.44041 13.3318 8.75157 13.3321 7.99924C13.3324 7.2469 13.7548 6.55837 14.4254 6.21731C14.2781 5.68664 14.0621 5.16598 13.7734 4.66664C13.4854 4.16731 13.1427 3.71998 12.7567 3.32664C12.126 3.73701 11.3184 3.75867 10.6666 3.38268C10.0148 3.0067 9.62924 2.29672 9.66873 1.54531C8.57422 1.26152 7.42547 1.26106 6.33073 1.54398C6.37057 2.2954 5.98527 3.00559 5.33362 3.38187C4.68197 3.75814 3.87427 3.7368 3.2434 3.32664C2.45122 4.13328 1.87742 5.1283 1.57606 6.21798C2.24639 6.55954 2.66833 7.24839 2.66804 8.00072C2.66776 8.75305 2.24531 9.44158 1.57473 9.78264ZM7.49999 13.3107C7.24455 12.5313 6.7104 11.8737 5.99999 11.464C5.29012 11.0537 4.4538 10.9198 3.65132 11.088C3.45834 10.8156 3.29097 10.5259 3.15132 10.2227C3.68665 9.62465 3.99999 8.83998 3.99999 7.99999C4.00057 7.17985 3.69837 6.38836 3.15132 5.77732C3.29007 5.47389 3.45703 5.18418 3.64999 4.91199C4.45297 5.08033 5.28984 4.94619 5.99999 4.53532C6.71065 4.12569 7.24505 3.46808 7.50065 2.68865C7.83332 2.65732 8.16732 2.65798 8.49999 2.68932C8.75542 3.46864 9.28957 4.12623 9.99998 4.53598C10.7098 4.9463 11.5462 5.08019 12.3487 4.91199C12.5416 5.18441 12.709 5.47408 12.8487 5.77732C12.3133 6.37532 12 7.15999 12 7.99999C11.9994 8.82012 12.3016 9.61161 12.8487 10.2227C12.71 10.526 12.5433 10.816 12.35 11.088C11.547 10.9196 10.7101 11.0538 9.99998 11.4647C9.28932 11.8743 8.75492 12.5319 8.49932 13.3113C8.16665 13.3427 7.83265 13.342 7.49999 13.3107ZM8 10C6.89543 10 6 9.10457 6 8C6 6.89543 6.89543 6 8 6C9.10457 6 10 6.89543 10 8C10 9.10457 9.10457 10 8 10ZM8.66667 8C8.66667 8.36819 8.36819 8.66667 8 8.66667C7.63181 8.66667 7.33333 8.36819 7.33333 8C7.33333 7.63181 7.63181 7.33333 8 7.33333C8.36819 7.33333 8.66667 7.63181 8.66667 8Z" fill="#001018"/>
</svg>

<svg width="16" height="16" fill="none" xmlns="http://www.w3.org/2000/svg"><path fill-rule="evenodd" clip-rule="evenodd" d="M1.575 9.783c.15.542.37 1.063.652 1.55.28.488.622.938 1.016 1.34a2 2 0 0 1 3.088 1.782 6.66 6.66 0 0 0 3.338.001 2 2 0 0 1 3.088-1.783 6.66 6.66 0 0 0 1.667-2.891 2 2 0 0 1 .001-3.565 6.645 6.645 0 0 0-.652-1.55 6.66 6.66 0 0 0-1.016-1.34 2 2 0 0 1-3.088-1.782 6.66 6.66 0 0 0-3.338-.001 2 2 0 0 1-3.088 1.783 6.66 6.66 0 0 0-1.667 2.891 2 2 0 0 1-.001 3.565zM7.5 13.31a3.328 3.328 0 0 0-3.849-2.223 5.417 5.417 0 0 1-.5-.865A3.327 3.327 0 0 0 4 8c0-.82-.302-1.612-.849-2.223.14-.303.306-.593.499-.865A3.33 3.33 0 0 0 6 4.535 3.329 3.329 0 0 0 7.5 2.69a5.303 5.303 0 0 1 1 0 3.329 3.329 0 0 0 3.849 2.223c.193.272.36.562.5.865A3.327 3.327 0 0 0 12 8c0 .82.302 1.612.849 2.223a5.295 5.295 0 0 1-.499.865 3.328 3.328 0 0 0-2.35.377 3.329 3.329 0 0 0-1.5 1.846 5.303 5.303 0 0 1-1 0zM8 10a2 2 0 1 1 0-4 2 2 0 0 1 0 4zm.667-2a.667.667 0 1 1-1.334 0 .667.667 0 0 1 1.334 0z" fill="#001018"/></svg>
